assets/img/braze_icons/columns-01.svg

<svg fill="none" height="24" viewBox="0 0 24 24" width="24" xmlns="http://www.w3.org/2000/svg"><g clip-rule="evenodd" fill="#801ed7" fill-rule="evenodd"><path d="m17.1615 2h.677c.5272-.00002.982-.00003 1.3565.03057.3954.0323.7886.10362 1.167.29641.5645.28762 1.0234.74656 1.311 1.31105.1928.37838.2641.7716.2964 1.16694.0306.37458.0306.82935.0306 1.35651v11.67702c0 .5272 0 .982-.0306 1.3565-.0323.3954-.1036.7886-.2964 1.167-.2876.5645-.7465 1.0234-1.311 1.311-.3784.1928-.7716.2641-1.167.2964-.3745.0306-.8293.0306-1.3564.0306h-.6772c-.5271 0-.9819 0-1.3564-.0306-.3954-.0323-.7886-.1036-1.167-.2964-.5645-.2876-1.0234-.7465-1.311-1.311-.1928-.3784-.2641-.7716-.2964-1.167-.0306-.3745-.0306-.8293-.0306-1.3565v-11.67704c0-.52715 0-.98191.0306-1.35649.0323-.39534.1036-.78856.2964-1.16694.2876-.56449.7465-1.02343 1.311-1.31105.3784-.19279.7716-.26411 1.167-.29641.3745-.0306.8293-.03059 1.3565-.03057z"/><path d="m6.16146 2h.67709c.52714-.00002.98191-.00003 1.35648.03057.39534.0323.78856.10362 1.16694.29641.56449.28762 1.02343.74656 1.31103 1.31105.1928.37838.2641.7716.2964 1.16694.0306.37458.0306.82935.0306 1.35651v11.67702c0 .5272 0 .982-.0306 1.3565-.0323.3954-.1036.7886-.2964 1.167-.2876.5645-.74654 1.0234-1.31103 1.311-.37838.1928-.7716.2641-1.16694.2964-.37457.0306-.82932.0306-1.35646.0306h-.67713c-.52714 0-.9819 0-1.35647-.0306-.39534-.0323-.78856-.1036-1.16694-.2964-.56449-.2876-1.02343-.7465-1.31105-1.311-.19279-.3784-.26411-.7716-.29641-1.167-.0306-.3745-.03059-.8293-.03057-1.3565v-11.67704c-.00002-.52715-.00003-.98191.03057-1.35649.0323-.39534.10362-.78856.29641-1.16694.28762-.56449.74656-1.02343 1.31105-1.31105.37838-.19279.7716-.26411 1.16694-.29641.37458-.0306.82934-.03059 1.35649-.03057z"/></g></svg>

<svg width="24" height="24" viewBox="0 0 24 24" fill="none" xmlns="http://www.w3.org/2000/svg">
<path fill-rule="evenodd" clip-rule="evenodd" d="M17.1615 2H17.8385C18.3657 1.99998 18.8205 1.99997 19.195 2.03057C19.5904 2.06287 19.9836 2.13419 20.362 2.32698C20.9265 2.6146 21.3854 3.07354 21.673 3.63803C21.8658 4.01641 21.9371 4.40963 21.9694 4.80497C22 5.17955 22 5.63432 22 6.16148V17.8385C22 18.3657 22 18.8205 21.9694 19.195C21.9371 19.5904 21.8658 19.9836 21.673 20.362C21.3854 20.9265 20.9265 21.3854 20.362 21.673C19.9836 21.8658 19.5904 21.9371 19.195 21.9694C18.8205 22 18.3657 22 17.8386 22H17.1614C16.6343 22 16.1795 22 15.805 21.9694C15.4096 21.9371 15.0164 21.8658 14.638 21.673C14.0735 21.3854 13.6146 20.9265 13.327 20.362C13.1342 19.9836 13.0629 19.5904 13.0306 19.195C13 18.8205 13 18.3657 13 17.8385V6.16146C13 5.63431 13 5.17955 13.0306 4.80497C13.0629 4.40963 13.1342 4.01641 13.327 3.63803C13.6146 3.07354 14.0735 2.6146 14.638 2.32698C15.0164 2.13419 15.4096 2.06287 15.805 2.03057C16.1795 1.99997 16.6343 1.99998 17.1615 2Z" fill="#801ED7"/>
<path fill-rule="evenodd" clip-rule="evenodd" d="M6.16146 2H6.83855C7.36569 1.99998 7.82046 1.99997 8.19503 2.03057C8.59037 2.06287 8.98359 2.13419 9.36197 2.32698C9.92646 2.6146 10.3854 3.07354 10.673 3.63803C10.8658 4.01641 10.9371 4.40963 10.9694 4.80497C11 5.17955 11 5.63432 11 6.16148V17.8385C11 18.3657 11 18.8205 10.9694 19.195C10.9371 19.5904 10.8658 19.9836 10.673 20.362C10.3854 20.9265 9.92646 21.3854 9.36197 21.673C8.98359 21.8658 8.59037 21.9371 8.19503 21.9694C7.82046 22 7.36571 22 6.83857 22H6.16144C5.6343 22 5.17954 22 4.80497 21.9694C4.40963 21.9371 4.01641 21.8658 3.63803 21.673C3.07354 21.3854 2.6146 20.9265 2.32698 20.362C2.13419 19.9836 2.06287 19.5904 2.03057 19.195C1.99997 18.8205 1.99998 18.3657 2 17.8385V6.16146C1.99998 5.63431 1.99997 5.17955 2.03057 4.80497C2.06287 4.40963 2.13419 4.01641 2.32698 3.63803C2.6146 3.07354 3.07354 2.6146 3.63803 2.32698C4.01641 2.13419 4.40963 2.06287 4.80497 2.03057C5.17955 1.99997 5.63431 1.99998 6.16146 2Z" fill="#801ED7"/>
</svg>
